X: 87
T:Rigadoon,A. JaW.087
M:6/4
L:1/4
Q:1/4=120
S:James Winder Ms, Lancashire, 1835-41
R:Rigadoon
O:England
A:Wyresdale,Lancashire
H:1/4
Z:vmp.Chris Partington, Aug 2004
K:D
A|d>cd F>GA|D3 d>ef|f>ed c2d|e3 A2A|!
d>cd F>GA|D3 d>ef|e>dc B3|A3-A2:|!
|:A|B>cd c>de|d3 c3|d>ef f>ed|!
a3 (af)d|(ge)c eAc|d3-d2:|]
